app/dist/common/images/duerr-ag-o-n.svg

<svg height="18" viewBox="0 0 18 18" width="18" xmlns="http://www.w3.org/2000/svg"><path d="m0 0h18v18h-18z" fill="#f0f3fa"/><path d="m8 4h-4v10h10v-10h-4v1h3v8h-8v-8h3zm2.5 7c0 .55-.38 1-.84 1h-2.16v-6h2.16c.45 0 .82.42.84.95zm-1-3.42c0-.28-.2-.58-.43-.58h-.57v4h.57c.23 0 .42-.3.43-.55z" fill="#00488e"/></svg>

<!-- by TradingView --><svg width="18" height="18" viewBox="0 0 18 18" xmlns="http://www.w3.org/2000/svg"><path fill="#F0F3FA" d="M0 0h18v18H0z"/><path d="M8 4H4v10h10V4h-4v1h3v8H5V5h3V4Zm2.5 7c0 .55-.38 1-.84 1H7.5V6h2.16c.45 0 .82.42.84.95V11Zm-1-3.42C9.5 7.3 9.3 7 9.07 7H8.5v4h.57c.23 0 .42-.3.43-.55V7.58Z" fill="#00488E"/></svg>
